!!!COM: Ulenberg, Caspar
!!!CDT: 1548/12/24-1617/02/16
!!!OPR: Die Psalmen Davids
!!!ONM: 32
!!!ONM-carmgen: 29
!!!OTL@@LA: Exultate iusti in Domino
!!!OTL-incipit@@DE: Ihr frommen frewet euch im Herren
**kern	**text
*Ivox	*
*clefC4	*
*k[b-]	*
*M2/1	*
*met(C|)	*
*MM180	*
=-	=-
*xywh-#175:100,348,703,412	*
1G	Ihr
2D	from-
2D	-men
=-	=-
2F	frew-
2G	-et
2A	euch
2G	im
=-	=-
1F	Her-
2G	-ren
*xywh-#175:97,748,704,223	*
2A	Mit
=-	=-
2B-	ho-
2A	-hen
1G	eh-
=-	=-
1F	-ren/
1r	.
=-	=-
1D	Es
2F	ste-
2G	-het
=-	=-
2A	den
2G	auff-
*xywh-#175:95,958,707,224	*
2F	-rech-
2E	-ten
=-	=-
1D	fein/
1r	.
=-	=- 
1F	Zů
2G	lo-
2G	-ben
=-	=-
2A	un-
2F	-ver-
2G	-dros-
2A	-sen
=-	=-
1B-	sein/
1r	.
=-	=-
*xywh-#175:100,1168,705,268	*
1d	Spielt
2d	auff
2d	der
=-	=-
2A	harf-
2c	-fen
2B-	ihm
2A	zů
=-	=-
1G	eh-
2F	-ren/
*xywh-#176:193,152,715,289	*
2D	Dem
=-	=-
2F	lie-
2G	-ben
1B-	Her-
=-	=-
1A	-ren/
1r	.
=-	=-
1A	Preist
2B-	ihn
2B-	auff
=-	=-
2c	ins-
2d	-tru-
*xywh-#176:195,432,710,234	*
2c	-mẽ-
2B-	-ten
=-	=-
1A	rein/
1r	.
=-	=-
1d	Braucht
2B-	das
2A	zehn-
=-	=-
2G	-sei-
2B-	-tig
2A	Psal-
2A	-ter-
=-	=-
0Gll;	-lein.
==	==
*-	*-
!!!RDF**kern: l = terminal long
!!!RDF**kern: i = editorial accidental
!!!AGN: Psalm
!!!YOR: https://mdz-nbn-resolving.de/details:bsb11116252
!!!YOO: München, Bayerische Staatsbibliothek
!!!URL-scan: https://www.digitale-sammlungen.de/de/view/bsb11116252?page=175
!!!IIIF: https://api.digitale-sammlungen.de/iiif/presentation/v2/bsb11116252/manifest
!!!EED: Wolfgang Drescher
!!!END: 2023/04/03
!!!ENC: Wolfgang Drescher
!!!EEV: 2023/04/03
!!!title: @{ONM}. @{OTL} / <i>@{OTL-incipit@@DE}</i>